X:1
T:OH! WHAT FUN!
T:OH! WHAT FUN!
T:sung with great applause by Mr. GLINDON, Mr. MOODY, Mr. WILD,
T:Written by C. PAGE. Author of the Royal Presents. &c. 
T:Arranged by J. MONRO.
T:1843
T:1843
T:1843
T:1843
T:1843
T:1843
T:1843
T:1843
T:1843
T:1843
T:1843
T:1843
T:1843
T:1843
T:1843
T:1843
C:Written by C. PAGE. Author of the Royal Presents. &c.
Z:Arranged by J. MONRO.
Z:1843
%%score 1 { 2 | 3 }
L:1/8
M:4/4
K:F
V:1 treble nm="Voice"
V:2 treble nm="Piano"
V:3 bass 
V:1
"_Non Troppo Presto" z z |[Q:1/4=144]"^Allegro" z8 | z8 | z8 | z8 | z8 | z8 | z8 | z2 z2 z2 |] c2 | %10
w: |||||||||This|
 AFFF FFFF | GGcc A2 FF | GGGG GGGG | ccdd e2 cc | cAfe dcBA | BcdB c2 Ac | fFFF BAGF | %17
w: world will soon be at an end, Or|else I am mis- ta- ken; At|least I fan cy 'twill ere long, Be|tot al- ly for- sak- ken; The|sur face, on- ly, 'tis I mean, But|that and no thing short er, In|Air one half will soon be seen, The|
 FDGF{E} E2{D} C2 | F2 F2 F2 z z | Acde fdcB | A2 F2 F2 z2 | z8 | z8 | z8 | z6 |] c2 | %26
w: oth er un der Wa- ter.|Oh! what fun-|Well, I ne ver! Did you e- ver|know such fun.|||||We're|
"^Verse 2." AFFF FFFF | AAcc A2 FF | GGGG GGGG | ccdd ec z c | cAfe dcBA | BcdB cA z c | %32
w: quite am phi bious grown of late And|all thro' one great Bru nel We|now can un der wa ter live, He's|shewn us by the tun- nel: Tho'|ma- ny can't well live on land, The|times so hard are get ting The|
 fFFG BAGF | FDGF{F} E2{D} C2 | F2 F2 F2 z2 | cdee fdcB | A2 F2 F2 z2 | z8 | z8 | z8 | z2 z2 z2 |] %41
w: riv er's depths they now can sound, And|that with out a wet- ting.|Oh! what fun|Well I ne er! Did you ev er|know such fun.|||||
"^Verse 3." c2 | AFFF FFFF | GGcc A2 FF | GGGG GGGG | ccdd e2 cc | cAfe dcBA | BcdB c2 Ac | %48
w: All|those who are not wa ter proof, Have|no cause for des pair- ing, For|Mis ter Hen son's car riage can, soon,|take them out an air- ing- I|do not mean a- long the road, of|hors es he's no team, sirs, No,|
 fFFF BAGF | FDGF{F} E2{D} C2 | F2 F2 F2 z z | Acde fdcB | A2 F2 F2 z2 | z8 | z8 | z2 z2 z4 | z6 |] %57
w: no, he'll fly right thro' the clouds, and|all by force of steam, sirs!|Oh! what fun|Well, I ne- ver! Did you ev er|know such fun?|||||
"_NON TROPPO PRESTO" z z z2 z2 | z4 z4 | z4 z4 | z4 z4 | z4 z4 | z4 z4 | z4 z4 | z8 |] %65
w: ||||||||
"^Verse 4." c2 | AFFF FFFF | GGcc A2 FF | GGGG GGGG | ccdd e2 cc | cAfe dcBA | BcdB c2 Ac | %72
w: The|ver y skies are bright en ing up-|The anxious clouds are clear ing, To|cheer brave Hen- son, as he through The|milk- y way is steer- ing. The|twink ling stars ap pear to think The|sight will prove a trea- sure, And|
 fFFF BAGF | FDGF{E} E2{D} C2 | F2 F2 F2 z z | Acde fdcB | A2 F2 F2 z2 | z4 z4 | z2 z2 z2 z2 | z8 | %80
w: the Co- met seems de light ed, For|he- wags his tail with pleasure!!|Oh! what fun-|Well, I ne ver! Did you e- ver|know such fun?||||
 z6 |] c2 |"^Verse 5." AFFF FFFF | GGcc A2 FF | GGGG GGGG | ccdd e2 cc | cAfe dcBA | BcdB cA z c | %88
w: |The|la dy Moon too's all a live The|news a- bove's so catch- ing, And|so, to be in read in ness, Her|man she makes keep watch- ing; When|first she heard the sub ject broached, Her|rap tures were ex tat ic; In|
 fFFF BAGF | FDGF{F} E2{D} C2 | F2 F2 F2 z2 | cdee fdcB | A2 F2 F2 z2 | z4 z4 | z4 z4 | z4 z4 | %96
w: fact she laughed to that de gree, 'Twas|per fect ly lu- na- tic.|Oh! what fun|Well I ne er! Did you ev er|know such fun.||||
 z4 z2 |] c2 |"^Verse 6.." AFFF FFFF | GGcc A2 FF | GGGG GGGG | ccdd e2 cc | cAfe dcBA | %103
w: |No|more shall Earthquakes make us qu ake, When|they're prog- nos- ti- cat- ed; They've|on ly now to "name the day," And|Eng land's soon vac- a- ted. By|Hen- son's skill we save our selves With|
 BcdB c2 Ac | fFFF BAGF | FDGF{F} E2{D} C2 | F2 F2 F2 z2 | cdee fdcB | A2 F2 F2 z2 | z4 z4 | %110
w: cour age not dim i nished. We|mount a bove in qui- i- et, And|there watch until it's fin- ished!|Oh! what fun|Well I ne er! Did you ev er|know such fun.||
 z4 z4 | z4 z4 | z4 z2 |] c2 |"^Verse 7." AFFF FFFF | GGcc A2 FF | GGGG GGGG | ccdd e2 cc | %118
w: |||Our|parks will soon de- sert- ed be, The|Queen will not be there, Sirs! And|fash- ion- ab- les all you'll see Swift|glid- ing through the air Sirs! They'll|
 cAfe dcBA | BcdB cA z c | fFFF BAGF | FDGF{F} E2{D} C2 | F2 F2 F2 z2 | cdee fdcB | A2 F2 F2 z2 | %125
w: start off on an af- ter- noon, Or|else I am a sin- ner Take|one turn round Ve suv i us, And|back a gain to din ner.|Oh! what fun|Well I ne er! Did you ev er|know such fun?|
 z4 z4 | z4 z4 | z4 z4 | z4 z2 |]"^Verse 8." c2 |"^Verse 8." AFFF FFFF | AAcc A2 FF | GGGG GGGG | %133
w: ||||Great|China's Em- por- or too, must now Be|have his best 'tis said, Sirs! Or|else some day he'l find an army Float|
 ccdd e2 cc | cAfe dcBA | BcdB c2 cc | fFFF BAGF | FDGF{F} E2{D} C2 | F2 F2 F2 z2 | cdef fdcB | %140
w: ing o' er his head, Sirs! And|if he does not keep one Peace, He|may have cause to grieve it They'll|his Em pire crushed to piec- es, And|as brok- en China leave *|Oh! what fun|Well I ne er! Did you ev er|
 A2 F2 F2 z2 | z4 z4 | z4 z4 | z4 z4 | z4 z2 |] c2 | A2"^Verse 9." FF FFFF | GGcc A2 FF | %148
w: know such fun?|||||Then|wish suc cess to Hen- son, And|all his loft y not- ions. And|
 GGGG GGGG | ccdd e2 cc | cAfe dcBA | BcdB c2 Ac | fFFF BAGF | GFFD{F} E2{D} C2 | F2 F2 F2 z2 | %155
w: ma he ex hib it to the World|his Aer- i al mot- ions; And|may he reap pure Eng- lish gold, As|well as for- eign dol- lars; And|fin ish for his trou ble with a|host of fly- ing co- lors!|Oh! what fun|
 Acde fdcB | A2 F2 F2 z2 | z2 z4 z2 | z2 z4 z2 | z2 z4 z2 | z2 z4 |] %161
w: Well, I ne ver! Did you ev er|know such fun?|||||
V:2
{c} c'2 | (af).f.f .f.f.f.f | (gA)(c'b) (bagf) | (ed)fd (dc)fc | B>c G>A G>A B/c/d/e/ | %5
!ff! [FAcf]2 [FBdf]2 [FAcf]2 z2 | [Afac']2 [Aega]2 [Afac']2 z2 | %7
!fff! [dfd']2 [egd']>[egd'] [fac']2 [ABd^fa]>[ABdfa] | [Bdgb]2 [GBce]2 [FAf]2 |] z2 | %10
 [A,CF]2 [B,DF]2 [A,CF]2 [A,DF]2 | [DFG]2 [DGB]2 [A,A]C[A,A] z | %12
 z [CEG] z [DGA] z [CEG] z [=B,FG] | [CG]G,[B,F]G, [CE]G,[CE] z | %14
 z [CFA][CFA][CFA] z [CFA][CFA][CA] | z [DFB][DFB][DFB] z [CFA][CFA][CFA] | %16
 z [CF][CF][CF] [FB][EA][DG][CF] | z [B,D] z [=B,F] z [CE] z [_B,C] | [A,CF]2 [B,DF]2 [A,CF]2 z z | %19
 z [CA][DB][EG] [FA][DB][CA][B,G] | [CF]2 [CF]2 [CF]d/c/ =B/c/d/e/ | [FAcf]2 [FBdf]2 [FAcf]2 z2 | %22
!ff! [Adfa]2 [Aega]2 [Adfa]2 z2 |!fff! [dfd']2 [egd']>[egd'] [dfa]2 [AB^fa]>[ABfa] | %24
 [Bdgb]2 [Bceg]2 [Acf]2 |] z z | [A,CF]2 [B,DF]2 [A,CF]2 [A,DF]2 | [DFG]2 [B,EG]2 [A,A]C[A,A] z | %28
 z [CEG] z [DFG] z [CEG] z [=B,FG] | [CG]G,[=B,F]G, [CE]G,[CE] z | %30
 z [CFA][CFA][CFA] z [CFA][CFA][CFA] | z [DFB][DFB][DFB] z [CFA][CFA][CFA] | %32
 z [CF][CF][CF] [EB][EA][DG][CF] | z [B,D] z [=B,F] z [CE] z [_B,C] | [A,CF]2 [B,DF]2 [A,CF]2 z2 | %35
 z [CF][DB][EG] [FA][DB][CA][CG] | [A,F]2 [A,F]2 [A,F]d/c/ =B/c/d/e/ | [FAcf]2 [FBdf]2 [FAcf]2 z2 | %38
 [Adfa]2 [Aega]2 [Adfa]2 z2 | [dfd']2 [egd']>[egd'] [ac'e']2 [cd^fa]>[cdfa] | %40
 [Bdgb]2!ff! [Bceg]2 [Acf]2 |] z2 | [A,CF]2 [B,DF]2 [A,CF]2 [A,DF]2 | %43
 [DFG]2 [B,EG]2 [A,F]C[A,F] z | z [CEG] z [DFG] z [CEG] z [=B,FG] | [CG]G,[=B,F]G, [CE]G,[CE] z | %46
 z [CFA][CFA][CFA] z [CFA][CFA][CFA] | z [DFB][DFB][DFB] z [CFA][CFA][CFA] | %48
 z [CF][CF][CF] [FB][EA][DG][CF] | z [B,D] z [=B,F] z [CE] z [_B,C] | [A,CF]2 [B,DF]2 [A,CF]2 z2 | %51
 z [CA][DB][EG] [FA][DB][CA][B,G] | [A,F]2 [A,F]2 [A,F]d/c/ =B/c/d/e/ | %53
!ff! [FAcf]2 [FBdf]2 [FAcf]2 z2 | [Adfa]2 [Aega]2 [Adfa]2 z2 | %55
!fff! [egd']2 [egd']>[egd'] [ac'e']2 [cd^fa]>[cdfa] | [Bdgb]2 [Beg]2 [Acf]2 |] (cc')(af) .f.f | %58
 .f.f.f.f (g2 c2) | (c'2 b2) (edfd | dcf)c G>A G>A | (Bc)de!ff! [FAcf]2 [FBdf]2 | %62
 [FAcf]2 z2 [Afac']2 [Aega]2 | [Afac']2 z2!fff! [dfd']2 [egd']>[egd'] | %64
 [fac']2 [ABd^fa]>[ABdfa] [Bdgb]2 [GBce]2 |] z2 | [A,CF]2 [B,DF]2 [A,CF]2 [A,DF]2 | %67
 [DFG]2 [DGB]2 [A,A]C[A,A] z | z [CEG] z [DGA] z [CEG] z [=B,FG] | [CG]G,[B,F]G, [CE]G,[CE] z | %70
 z [CFA][CFA][CFA] z [CFA][CFA][CFA] | z [DFB][DFB][DFB] z [CFA][CFA][CFA] | %72
 z [CF][CF][CF] [FB][EA][DG][CF] | z [B,D] z [=B,F] z [CE] z [_B,C] | [A,CF]2 [B,DF]2 [A,CF]2 z z | %75
 z [CA][DB][EG] [FA][DB][CA][B,G] | [A,F]2 [A,F]2 [A,F]d/c/ =B/c/d/e/ | %77
 [FAcf]2 [FBdf]2 [FAcf]2 z2 |!ff! [Adfa]2 [Aega]2 [Adfa]2 z2 | %79
!fff! [egd']2 [egd']>[egd'] [dfa]2 [AB^fa]>[ABfa] | [Bdgb]2 [Bceg]2 [Acf]2 |] z2 | %82
 [A,CF]2 [B,DF]2 [A,CF]2 [A,DF]2 | [DFG]2 [DGB]2 [A,A]C[A,A] z | %84
 z [CEG] z [DGA] z [CEG] z [=B,FG] | [CG]G,[B,F]G, [CE]G,[CE] z | %86
 z [CFA][CFA][CFA] z [CFA][CFA][CFA] | z [DFB][DFB][DFB] z [CFA][CFA][CFA] | %88
 z [CF][CF][CF] [FB][EA][DG][CF] | z [B,D] z [=B,F] z [CE] z [_B,C] | [A,CF]2 [B,DF]2 [A,CF]2 z2 | %91
 z [CA][DB][EG] [FA][DB][CA][B,G] | [CF]2 [CF]2 [CF]d/c/ =B/c/d/e/ | [FAcf]2 [FBdf]2 [FAcf]2 z2 | %94
!ff! [Adfa]2 [Aega]2 [Adfa]2 z2 |!fff! [egd']2 [egd']>[egd'] [dfa]2 [AB^fa]>[ABfa] | %96
 [Bdgb]2 [Bceg]2 [Acf]2 |] z2 | [A,CF]2 [A,CF]2 [A,CF]2 [A,DF]2 | [DFG]2 [B,EG]2 [A,A]C[A,A] z | %100
 z [CEG] z [DFG] z [CEG] z [=B,EF] | [CG]G,[=B,F]G, [CE]G,[CE] z | %102
 z [CFA][CFA][CFA] z [CF][CFA][CFA] | z [DFB][DFB][DFB] z [CFA][CFA][CFA] | %104
 z [CF][CF][CF] [EB][EA][DG][CF] | z [B,D] z [=B,F] z [CE] z [_B,C] | [A,CF]2 [B,DF]2 [A,CF]2 z2 | %107
 z [CF][DB][EG] [FA][DB][CA][CG] | [CF]2 [CF]2 [CF]d/c/ =B/c/d/e/ | [FAcf]2 [FBdf]2 [FAcf]2 z2 | %110
 [Adfa]2 [Aega]2 [Adfa]2 z2 | [dfd']2 [egd']>[egd'] [ac'e']2 [cd^fa]>[cdfa] | %112
 [Bdgb]2!ff! [Bceg]2 [Acf]2 |] z2 | [A,CF]2 [B,DF]2 [A,CF]2 [A,DF]2 | %115
 [DFG]2 [=B,EG]2 [A,A]C[A,A] z | z [CEG] z [DGA] z [CEG] z [=B,FG] | [CG]G,[B,F]G, [CE]G,[CE] z | %118
 z [CFA][CFA][CFA] z [CFA][CFA][CFA] | z [DFB][DFB][DFB] z [CFA][CFA][CFA] | %120
 z [CF][CF][CF] [FB][EA][DG][CF] | z [B,D] z [=B,F] z [CE] z [_B,C] | [A,CF]2 [B,DF]2 [A,CF]2 z z | %123
 z [CA][DB][EG] [FA][DB][CA][B,G] | [CF]2 [CF]2 [CF]d/c/ =B/c/d/e/ | [FAcf]2 [FBdf]2 [FAcf]2 z2 | %126
!ff! [Adfa]2 [Aega]2 [Adfa]2 z2 |!fff! [egd']2 [egd']>[egd'] [dfa]2 [AB^fa]>[ABfa] | %128
 [Bdgb]2 [Bceg]2 [Acf]2 |] z2 | [A,CF]2 [B,DF]2 [A,CF]2 [A,DF]2 | [DFG]2 [DGB]2 [A,A]C[A,A] z | %132
 z [CEG] z [DGA] z [CEG] z [=B,FG] | [CG]G,[B,F]G, [CE]G,[CE] z | %134
 z [CFA][CFA][CFA] z [CFA][CFA][CFA] | z [DFB][DFB][DB] z [CFA][CFA][CFA] | %136
 z [CF][CF][CF] [FB][EA][DG][CF] | z [B,D] z [=B,F] z [CE] z [_B,C] | [A,CF]2 [B,DF]2 [A,CF]2 z z | %139
 z [CA][DB][EG] [FA][DB][CA][B,G] | [CF]2 [CF]2 [CF]d/c/ =B/c/d/e/ | [FAcf]2 [FBdf]2 [FAcf]2 z2 | %142
!ff! [Adfa]2 [Aega]2 [Adfa]2 z2 |!fff! [egd']2 [egd']>[egd'] [dfa]2 [AB^fa]>[ABfa] | %144
 [Bdgb]2 [Bceg]2 [Acf]2 |] z2 | [A,CF]2 [B,DF]2 [A,CF]2 [A,DF]2 | [DFG]2 [DGB]2 [A,A]C[A,A] z | %148
 z [CEG] z [DGA] z [CEG] z [=B,FG] | [CG]G,[B,F]G, [CE]G,[CE] z | %150
 z [CFA][CFA][CFA] z [CFA][CFA][CFA] | z [DFB][DFB][DFB] z [CFA][CFA][CFA] | %152
 z [CF][CF][CF] [FB][EA][DG][CF] | z [B,D] z [=B,F] z [CE] z [_B,C] | [A,CF]2 [B,DF]2 [A,CF]2 z z | %155
 z [CA][DB][EG] [FA][DB][CA][B,G] | [CF]2 [CF]2 [CF]d/c/ =B/c/d/e/ | [FAcf]2 [FBdf]2 [FAcf]2 z2 | %158
!ff! [Adfa]2 [Aega]2 [Adfa]2 z2 |!fff! [egd']2 [egd']>[egd'] [dfa]2 [AB^fa]>[ABfa] | %160
 [Bdgb]2 [Bceg]2 [Acf]2 |] %161
V:3
 z z | [F,,F,]2 [F,A,C]2 [F,A,C]2 [F,A,C]2 | [E,G,C]2 [C,E,G,C]2 [F,A,C]2 z2 | %3
 z [F,B,D][F,B,D][F,B,D] z [F,A,C][F,A,C][F,A,C] | [E,G,C]2 [F,A,C]2 [C,G,C]2 z2 | %5
 [F,,F,]2 [F,,F,]2 [F,,F,]2 z2 | [D,,D,]2 [^C,,^C,]2 [D,,D,]2 z2 | %7
 [B,,,B,,]2 [^C,,^C,]>[D,,D,] [A,,,A,,]2 [D,,D,]>[D,,D,] | [G,,,G,,]2 [C,,C,]2 [F,,,G,,]2 |] z2 | %10
 F,,2 F,2 F,,2 C,2 | B,,2 C,2 F,,2 F, z | C,2 =B,,2 C,2 D,2 | [G,,E,]2 [G,,D,]2 (C,2 C,) z | %14
 F,,2 z z F,2 z2 | F,,2 z2 F,2 z2 | A,,2 z2 D,C,B,,A,, | B,,2 G,,2 C,2 E,2 | %18
 [F,,F,]2 [F,,F,]2 [F,,F,]2 z z | F,,F,F,F, F,,F,F,F, | F,,2 [F,,C,F,]2 [F,,C,F,]2 z2 | %21
 [F,,F,]2 [F,,F,]2 [F,,F,]2 z2 | [D,,C,]2 [^C,,^C,]2 [D,,D,]2 z2 | %23
 [B,,,B,,]2 [B,,,B,,]>[B,,,B,,] [A,,,A,,]2 [D,,D,]>[D,,D,] | [G,,,G,,]2 [C,,C,]2 [F,,,F,,]2 |] %25
 z z | F,,2 F,2 F,,2 F,2 | B,,2 C,2 F,,2 F, z | C,2 =B,,2 C,2 D,2 | [G,,E,]2 [G,,E,]2 (C,2 C,) z | %30
 F,,2 z z F,2 z2 | F,,2 z2 F,2 z2 | A,,2 z2 D,C,B,,A,, | B,,2 G,,2 C,2 E,2 | %34
 [F,,F,]2 [F,,F,]2 [F,,F,]2 z2 | F,,F,F,F, F,,F,F,F, | F,,2 [F,,C,F,]2 [F,,C,F,]2 z2 | %37
 [F,,F,]2 [F,,F,]2 [F,,F,]2 z2 | [D,,D,]2 [^C,,^C,]2 [D,,D,]2 z2 | %39
 [B,,,B,,]2 [B,,,B,,]>[B,,,B,,] [A,,,A,,]2 [D,,D,]>[D,,D,] | [G,,,G,,]2 [C,,C,]2 [F,,,F,,]2 |] z2 | %42
 F,,2 F,2 F,,2 F,2 | B,,2 C,2 F,,2 F, z | C,2 =B,,2 C,2 D,2 | [G,,E,]2 [G,,D,]2 (C,2 C,) z | %46
 F,,2 z2 F,2 z2 | F,,2 z2 F,2 z2 | A,,2 z2 D,C,B,,A,, | B,,2 G,,2 C,2 E,2 | %50
 [F,,F,]2 [F,,F,]2 [F,,F,]2 z2 | F,,F,F,F, F,,F,F,F, | F,,2 [F,,C,F,]2 [F,,C,F,]2 z2 | %53
 [F,,F,]2 [F,,F,]2 [F,,F,]2 z2 | [D,,D,]2 [^C,,^C,]2 [D,,D,]2 z3/2 z/ | %55
 [B,,,B,,]2 [B,,,B,,]>[B,,,B,,] [A,,,A,,]2 [D,,D,]>[D,,D,] | [G,,,G,,]2 [E,,E,]2 [F,,,F,,]2 |] %57
 z z [F,,F,]2 [F,A,C]2 | [F,A,C]2 [F,A,C]2 [E,G,C]2 [C,E,G,C]2 | %59
 [F,A,C]2 z2 z [F,B,D][F,B,D][F,B,D] | z [F,A,C][F,A,C][F,A,C] [E,G,C]2 [F,A,C]2 | %61
 [C,G,C]2 z2 [F,,F,]2 [F,,F,]2 | [F,,F,]2 z2 [D,,D,]2 [^C,,^C,]2 | %63
 [D,,D,]2 z2 [B,,,B,,]2 [^C,,^C,]2 | [D,,D,]2 z2 [G,,,G,,]2 [C,,C,]2 |] z2 | F,,2 F,2 F,,2 C,2 | %67
 B,,2 C,2 F,,2 F, z | C,2 =B,,2 C,2 D,2 | [G,,E,]2 [G,,D,]2 (C,2 C,) z | F,,2 z z F,2 z2 | %71
 F,,2 z2 F,2 z2 | A,,2 z2 C,=B,,_B,,A,, | B,,2 G,,2 C,2 E,2 | [F,,F,]2 [F,,F,]2 [F,,F,]2 z z | %75
 F,,F,F,F, F,,F,F,F, | F,,2 [F,,C,F,]2 [F,,C,F,]2 z2 | [F,,F,]2 [F,,F,]2 [F,,F,]2 z2 | %78
 [D,,D,]2 [^C,,^C,]2 [D,,D,]2 z2 | [B,,,B,,]2 [B,,,B,,]>[B,,,B,,] [A,,,A,,]2 [D,,D,]>[D,,D,] | %80
 [G,,,G,,]2 [C,,C,]2 [F,,,F,,]2 |] z2 | F,,2 F,2 F,,2 F,2 | B,,2 C,2 F,,2 F, z | %84
 C,2 =B,,2 C,2 D,2 | [G,,E,]2 [G,,D,]2 (C,2 C,) z | F,,2 z z F,2 z2 | F,,2 z2 F,2 z2 | %88
 A,,2 z2 C,=B,,_B,,A,, | B,,2 G,,2 C,2 E,2 | [F,,F,]2 [F,,F,]2 [F,,F,]2 z2 | F,,F,F,F, F,,F,F,F, | %92
 F,,2 [F,,C,F,]2 [F,,C,F,]2 z2 | [F,,F,]2 [F,,F,]2 [F,,F,]2 z2 | [D,,B,,]2 [^C,,^C,]2 [D,,D,]2 z2 | %95
 [B,,,B,,]2 [B,,,B,,]>[B,,,B,,] [A,,,A,,]2 [D,,D,]>[D,,D,] | [G,,,G,,]2 [C,,C,]2 [F,,,F,,]2 |] z2 | %98
 F,,2 F,2 F,,2 F,2 | B,,2 C,2 F,,2 F, z | D,2 C,2 D,2 E,2 | =B,,2 C,2 [G,,E,]2 [G,,E,]2 | %102
 C,2 C, z F,,2 z z | F,2 z2 F,,2 z2 | F,2 z2 D,C,B,,A,, | B,,2 G,,2 C,2 E,2 | F,2 F,2 F,2 z2 | %107
 F,,F,F,F, F,,F,F,F, | F,,2 [F,,C,F,]2 [F,,C,F,]2 z2 | [F,,F,]2 [F,,F,]2 [F,,F,]2 z2 | %110
 [D,,D,]2 [^C,,^C,]2 [D,,D,]2 z2 | [D,,D,]2 [D,,D,]>[D,,D,] [B,,,B,,]2 [B,,,B,,]>[B,,,B,,] | %112
 [G,,,G,,]2 [C,,C,]2 [D,,,F,,]2 |] z2 | F,,2 F,2 F,,2 C,2 | B,,2 C,2 F,,2 F, z | %116
 C,2 =B,,2 C,2 D,2 | [G,,E,]2 [G,,D,]2 (C,2 C,) z | F,,2 z z F,2 z2 | F,,2 z2 F,2 z2 | %120
 A,,2 z2 D,C,B,,A,, | B,,2 G,,2 C,2 E,2 | [F,,F,]2 [F,,F,]2 [F,,F,]2 z z | F,,F,F,F, F,,F,F,F, | %124
 F,,2 [F,,C,F,]2 [F,,C,F,]2 z2 | [F,,F,]2 [F,,F,]2 [F,,F,]2 z2 | %126
 [D,,B,,]2 [^C,,^C,]2 [D,,D,]2 z3/2 z/ | %127
 [B,,,B,,]2 [B,,,B,,]>[B,,,B,,] [A,,,A,,]2 [D,,D,]>[D,,D,] | [G,,,G,,]2 [C,,C,]2 [F,,,F,,]2 |] z2 | %130
 F,,2 F,2 F,,2 C,2 | B,,2 C,2 F,,2 F, z | C,2 =B,,2 C,2 D,2 | [G,,E,]2 [G,,D,]2 (C,2 C,) z | %134
 F,,2 z z F,2 z2 | F,,2 z2 F,2 z2 | A,,2 z2 D,C,B,,A,, | B,,2 G,,2 C,2 E,2 | %138
 [F,,F,]2 [F,,F,]2 [F,,F,]2 z z | F,,F,F,F, F,,F,F,F, | F,,2 [F,,C,F,]2 [F,,C,F,]2 z2 | %141
 [F,,F,]2 [F,,F,]2 [F,,F,]2 z2 | [D,,B,,]2 [^C,,^C,]2 [D,,D,]2 z2 | %143
 [B,,,B,,]2 [B,,,B,,]>[B,,,B,,] [A,,,A,,]2 [D,,D,]>[D,,D,] | [G,,,G,,]2 [C,,C,]2 [F,,,F,,]2 |] z2 | %146
 F,,2 F,2 F,,2 C,2 | B,,2 C,2 F,,2 F, z | C,2 =B,,2 C,2 D,2 | [G,,E,]2 [G,,D,]2 (C,2 C,) z | %150
 F,,2 z z F,2 z2 | F,,2 z2 F,2 z2 | A,,2 z2 D,C,B,,A,, | B,,2 G,,2 C,2 E,2 | %154
 [F,,F,]2 [F,,F,]2 [F,,F,]2 z z | F,,F,F,F, F,,F,F,F, | F,,2 [F,,C,F,]2 [F,,C,F,]2 z2 | %157
 [F,,F,]2 [F,,F,]2 [F,,F,]2 z2 | [D,,B,,]2 [^C,,^C,]2 [D,,D,]2 z2 | %159
 [B,,,B,,]2 [B,,,B,,]>[B,,,B,,] [A,,,A,,]2 [D,,D,]>[D,,D,] | [G,,,G,,]2 [C,,C,]2 [F,,,F,,]2 |] %161

